mimetypes/64/text-x-c.svg

<?xml version="1.0" encoding="UTF-8"?>
<svg width="64" height="64" version="1.1" xmlns="http://www.w3.org/2000/svg">
  <defs>
    <radialGradient id="a" cx="46.306" cy="38.848" r="14.161" gradientTransform="matrix(2.3177 0 0 3.1347 -60.325 -73.277)" gradientUnits="userSpaceOnUse">
      <stop stop-color="#56088f" stop-opacity=".35" offset="0"/>
      <stop stop-color="#472253" stop-opacity=".14556" offset="1"/>
    </radialGradient>
    <linearGradient id="c" x1="48.918" x2="35.678" y1="46.214" y2="32.974" gradientUnits="userSpaceOnUse">
      <stop stop-color="#28e0ff" stop-opacity=".41009" offset="0"/>
      <stop stop-color="#5794dc" stop-opacity="0" offset="1"/>
    </linearGradient>
    <linearGradient id="d" x1="82.744" x2="71" y1="79.421" y2="69" gradientTransform="translate(-34,-33)" gradientUnits="userSpaceOnUse">
      <stop stop-color="#4276e0" offset="0"/>
      <stop stop-color="#4184ec" offset=".25231"/>
      <stop stop-color="#4691ed" offset="1"/>
    </linearGradient>
    <radialGradient id="b" cx="8.5693" cy="26.419" r="30" gradientTransform="matrix(2.4121 0 0 2.4925 -12.294 -54.03)" gradientUnits="userSpaceOnUse">
      <stop stop-color="#37b0ff" stop-opacity=".65766" offset="0"/>
      <stop stop-color="#37b0ff" stop-opacity="0" offset="1"/>
    </radialGradient>
  </defs>
  <path d="m4 0h60v62h-60z" fill="#3689e5"/>
  <path d="m60 2v31l-24.322 29h28.322v-56z" fill="url(#a)"/>
  <path d="m0 2h60v31l-26 31h-34z" fill="#5ba6e3"/>
  <path d="m0 2h60v31l-26 31h-34z" fill="url(#b)"/>
  <path d="m0 2h60v31l-26 31h-34z" fill="url(#c)"/>
  <path d="m34 64 26-31c-2.3286 2.7764-4.3614 3-11 3h-12v15c0 6.6441 0.04437 9.3702-3 13z" fill="url(#d)"/>
  <path transform="matrix(.83529 0 0 .83626 -1.7566 .78294)" d="m34.309 29.309-12.212 7.0507-12.212-7.0507v-14.101l12.212-7.0507 12.212 7.0507z" fill="none" stroke="#e7f4fc" stroke-width="1.1965" style="-inkscape-stroke:none"/>
  <path d="m21.205 22.009a5.0587 5.0646 0 0 1-5.6903 2.3597 5.0587 5.0646 0 0 1-3.7494-4.892 5.0587 5.0646 0 0 1 3.7494-4.892 5.0587 5.0646 0 0 1 5.6903 2.3597" fill="none" stroke="#e7f4fc" stroke-width="4.786"/>
</svg>

<?xml version="1.0" encoding="UTF-8" standalone="no"?>
<!-- Created with Inkscape (http://www.inkscape.org/) -->

<svg
   xmlns:dc="http://purl.org/dc/elements/1.1/"
   xmlns:cc="http://creativecommons.org/ns#"
   xmlns:rdf="http://www.w3.org/1999/02/22-rdf-syntax-ns#"
   xmlns:svg="http://www.w3.org/2000/svg"
   xmlns="http://www.w3.org/2000/svg"
   xmlns:sodipodi="http://sodipodi.sourceforge.net/DTD/sodipodi-0.dtd"
   xmlns:inkscape="http://www.inkscape.org/namespaces/inkscape"
   version="1.1"
   width="64"
   height="64"
   id="svg13094"
   inkscape:version="0.48.4 r9939"
   sodipodi:docname="text-x-c.svg">
  <sodipodi:namedview
     pagecolor="#ffffff"
     bordercolor="#666666"
     borderopacity="1"
     objecttolerance="10"
     gridtolerance="10"
     guidetolerance="10"
     inkscape:pageopacity="0"
     inkscape:pageshadow="2"
     inkscape:window-width="1920"
     inkscape:window-height="1022"
     id="namedview48"
     showgrid="true"
     fit-margin-top="0"
     fit-margin-left="0"
     fit-margin-right="0"
     fit-margin-bottom="0"
     inkscape:snap-bbox="true"
     inkscape:bbox-paths="true"
     inkscape:bbox-nodes="true"
     inkscape:snap-bbox-edge-midpoints="true"
     inkscape:snap-bbox-midpoints="true"
     inkscape:object-paths="true"
     inkscape:snap-intersection-paths="true"
     inkscape:object-nodes="true"
     inkscape:snap-smooth-nodes="true"
     inkscape:snap-midpoints="true"
     inkscape:snap-object-midpoints="true"
     inkscape:snap-center="true"
     inkscape:zoom="10.429825"
     inkscape:cx="36.231668"
     inkscape:cy="28.892873"
     inkscape:window-x="-5"
     inkscape:window-y="23"
     inkscape:window-maximized="1"
     inkscape:current-layer="svg13094">
    <inkscape:grid
       type="xygrid"
       id="grid3025"
       empspacing="5"
       visible="true"
       enabled="true"
       snapvisiblegridlinesonly="true"
       originx="0px"
       originy="0px" />
  </sodipodi:namedview>
  <defs
     id="defs11" />
  <metadata
     id="metadata13099">
    <rdf:RDF>
      <cc:Work
         rdf:about="">
        <dc:format>image/svg+xml</dc:format>
        <dc:type
           rdf:resource="http://purl.org/dc/dcmitype/StillImage" />
        <dc:title />
      </cc:Work>
    </rdf:RDF>
  </metadata>
  <path
     d="M 4,0 64,0 64,62 4,62 z"
     id="path3960"
     style="fill:#d88e15;fill-opacity:1;fill-rule:nonzero"
     inkscape:connector-curvature="0" />
  <path
     style="fill:#552200;fill-rule:nonzero;fill-opacity:0.19210526"
     d="M 60 2 L 60 33 L 35.6875 62 L 64 62 L 64 37 L 64 6 L 60 2 z "
     id="path3900" />
  <path
     d="M 0,2 60,2 60,33 34,64 0,64 z"
     id="path3982"
     style="fill:#e9b12f;fill-rule:nonzero;fill-opacity:1"
     inkscape:connector-curvature="0" />
  <path
     d="M 34,64 60,33 c -2.32857,2.776369 -4.36141,3 -11,3 H 37 v 15 c 0,6.64407 0.04437,9.37018 -3,13 z"
     id="path4278"
     style="fill:#da9517;fill-rule:nonzero;fill-opacity:1"
     inkscape:connector-curvature="0" />
  <path
     style="color:#000000;fill:#664579;fill-opacity:1;fill-rule:nonzero;stroke:none;stroke-width:1;marker:none;visibility:visible;display:inline;overflow:visible;enable-background:accumulate"
     d="M 5,7 5,28 8,31 26,31 24,29 9,29 9,9 19,9 17,7 z"
     id="rect3038-0"
     inkscape:connector-curvature="0"
     sodipodi:nodetypes="cccccccccc" />
</svg>
